images/item-started4.svg

<svg width="32" height="32" viewBox="0 0 32 32" fill="none" xmlns="http://www.w3.org/2000/svg">
<path fill-rule="evenodd" clip-rule="evenodd" d="M10.249 8.41378C8.72293 9.77029 7.66797 11.8266 7.66797 14.6663C7.66797 15.2186 7.22025 15.6663 6.66797 15.6663C6.11568 15.6663 5.66797 15.2186 5.66797 14.6663C5.66797 11.2839 6.94634 8.67358 8.92027 6.91897C10.8758 5.18072 13.4549 4.33302 16.0013 4.33301C18.5477 4.33299 21.1268 5.18065 23.0823 6.9189C25.0563 8.6735 26.3346 11.2838 26.3346 14.6663C26.3346 15.2186 25.8869 15.6663 25.3346 15.6663C24.7824 15.6663 24.3346 15.2186 24.3346 14.6663C24.3346 11.8266 23.2797 9.77021 21.7536 8.41372C20.2091 7.04086 18.1216 6.33299 16.0013 6.33301C13.881 6.33302 11.7935 7.04092 10.249 8.41378Z" fill="#8060F6"/>
<path fill-rule="evenodd" clip-rule="evenodd" d="M5.57292 16.3662C4.65244 16.3662 3.90625 17.1124 3.90625 18.0329V23.3395C3.90625 24.26 4.65244 25.0062 5.57292 25.0062H6.83958C7.76006 25.0062 8.50625 24.26 8.50625 23.3395V18.0329C8.50625 17.1124 7.76006 16.3662 6.83958 16.3662H5.57292ZM1.90625 18.0329C1.90625 16.0078 3.54787 14.3662 5.57292 14.3662H6.83958C8.86463 14.3662 10.5062 16.0078 10.5062 18.0329V23.3395C10.5062 25.3646 8.86463 27.0062 6.83958 27.0062H5.57292C3.54787 27.0062 1.90625 25.3646 1.90625 23.3395V18.0329Z" fill="#292758"/>
<path fill-rule="evenodd" clip-rule="evenodd" d="M25.1589 16.3662C24.2384 16.3662 23.4922 17.1124 23.4922 18.0329V23.3395C23.4922 24.26 24.2384 25.0062 25.1589 25.0062H26.4255C27.346 25.0062 28.0922 24.26 28.0922 23.3395V18.0329C28.0922 17.1124 27.346 16.3662 26.4255 16.3662H25.1589ZM21.4922 18.0329C21.4922 16.0078 23.1338 14.3662 25.1589 14.3662H26.4255C28.4506 14.3662 30.0922 16.0078 30.0922 18.0329V23.3395C30.0922 25.3646 28.4506 27.0062 26.4255 27.0062H25.1589C23.1338 27.0062 21.4922 25.3646 21.4922 23.3395V18.0329Z" fill="#292758"/>
</svg>

<svg width="32" height="32" fill="none" xmlns="http://www.w3.org/2000/svg"><path fill-rule="evenodd" clip-rule="evenodd" d="M10.249 8.414c-1.526 1.356-2.581 3.413-2.581 6.252a1 1 0 1 1-2 0c0-3.382 1.278-5.992 3.252-7.747 1.956-1.738 4.535-2.586 7.081-2.586 2.547 0 5.126.848 7.081 2.586 1.974 1.755 3.253 4.365 3.253 7.747a1 1 0 1 1-2 0c0-2.84-1.055-4.896-2.581-6.252C20.209 7.04 18.122 6.333 16 6.333c-2.12 0-4.208.708-5.752 2.08Z" fill="#8060F6"/><path fill-rule="evenodd" clip-rule="evenodd" d="M5.573 16.366c-.92 0-1.667.746-1.667 1.667v5.306c0 .921.746 1.667 1.667 1.667H6.84c.92 0 1.666-.746 1.666-1.666v-5.307c0-.92-.746-1.667-1.666-1.667H5.573Zm-3.667 1.667a3.667 3.667 0 0 1 3.667-3.667H6.84a3.667 3.667 0 0 1 3.666 3.667v5.306a3.667 3.667 0 0 1-3.666 3.667H5.573a3.667 3.667 0 0 1-3.667-3.666v-5.307ZM25.159 16.366c-.92 0-1.667.746-1.667 1.667v5.306c0 .921.746 1.667 1.667 1.667h1.267c.92 0 1.666-.746 1.666-1.666v-5.307c0-.92-.746-1.667-1.666-1.667h-1.267Zm-3.667 1.667a3.667 3.667 0 0 1 3.667-3.667h1.267a3.667 3.667 0 0 1 3.666 3.667v5.306a3.667 3.667 0 0 1-3.666 3.667h-1.267a3.667 3.667 0 0 1-3.667-3.666v-5.307Z" fill="#292758"/></svg>
